packages/ffe-icons/icons/filled/md/local_hospital.svg

<svg xmlns="http://www.w3.org/2000/svg" height="24" viewBox="0 -960 960 960" width="24"><path d="M435.001-435.001V-335q0 18.75 13.145 31.875 13.144 13.124 31.922 13.124t31.854-13.124Q524.999-316.25 524.999-335v-100.001H625q18.75 0 31.875-13.145 13.124-13.144 13.124-31.922t-13.124-31.854Q643.75-524.999 625-524.999H524.999V-625q0-18.75-13.145-31.875-13.144-13.124-31.922-13.124t-31.854 13.124Q435.001-643.75 435.001-625v100.001H335q-18.75 0-31.875 13.145-13.124 13.144-13.124 31.922t13.124 31.854Q316.25-435.001 335-435.001h100.001Zm-222.692 295q-30.308 0-51.308-21t-21-51.308v-535.382q0-30.308 21-51.308t51.308-21h535.382q30.308 0 51.308 21t21 51.308v535.382q0 30.308-21 51.308t-51.308 21H212.309Z"/></svg>

<svg xmlns="http://www.w3.org/2000/svg" height="24" viewBox="0 -960 960 960" width="24"><path d="M435-435v100q0 18.75 13.15 31.87Q461.29-290 480.07-290t31.85-13.13Q525-316.25 525-335v-100h100q18.75 0 31.87-13.15Q670-461.29 670-480.07t-13.13-31.85Q643.75-525 625-525H525v-100q0-18.75-13.15-31.87Q498.71-670 479.93-670t-31.85 13.13Q435-643.75 435-625v100H335q-18.75 0-31.87 13.15Q290-498.71 290-479.93t13.13 31.85Q316.25-435 335-435h100ZM212.31-140Q182-140 161-161q-21-21-21-51.31v-535.38Q140-778 161-799q21-21 51.31-21h535.38Q778-820 799-799q21 21 21 51.31v535.38Q820-182 799-161q-21 21-51.31 21H212.31Z"/></svg>
